; generated by Slic3r 1.2.9 on 2015-09-25 at 11:16:33

; external perimeters extrusion width = 0.40mm
; perimeters extrusion width = 0.48mm
; infill extrusion width = 0.48mm
; solid infill extrusion width = 0.48mm
; top infill extrusion width = 0.48mm

M107
M104 S270 ; set temperature
G28 ; home all axes
G1 Z5 F5000 ; lift nozzle

M109 S270 ; wait for temperature to be reached
G21 ; set units to millimeters
G90 ; use absolute coordinates
M82 ; use absolute distances for extrusion
G92 E0
G1 E-9.00000 F1200.00000
G92 E0
G1 Z0.350 F4800.000
G1 X46.493 Y45.934 F4800.000
G1 E9.00000 F1200.00000
G1 X47.533 Y44.998 E9.02842 F1800.000
G1 X49.943 Y43.247 E9.08897
G1 X51.154 Y42.548 E9.11739
G1 X53.876 Y41.336 E9.17793
G1 X55.206 Y40.904 E9.20636
G1 X58.120 Y40.284 E9.26691
G1 X59.510 Y40.138 E9.29532
G1 X110.489 Y40.138 E10.33138
G1 X111.880 Y40.284 E10.35980
G1 X114.794 Y40.904 E10.42035
G1 X116.125 Y41.336 E10.44877
G1 X118.846 Y42.548 E10.50932
G1 X120.057 Y43.247 E10.53774
G1 X122.467 Y44.998 E10.59829
G1 X123.507 Y45.934 E10.62671
G1 X125.500 Y48.148 E10.68725
G1 X126.322 Y49.279 E10.71568
G1 X127.812 Y51.859 E10.77622
G1 X128.380 Y53.137 E10.80464
G1 X129.301 Y55.970 E10.86519
G1 X129.592 Y57.338 E10.89361
G1 X129.903 Y60.301 E10.95415
G1 X129.940 Y61.000 E10.96838
G1 X129.940 Y109.000 E11.94390
G1 X129.903 Y109.699 E11.95813
G1 X129.592 Y112.662 E12.01868
G1 X129.301 Y114.030 E12.04709
G1 X128.380 Y116.863 E12.10764
G1 X127.812 Y118.141 E12.13606
G1 X126.322 Y120.721 E12.19661
G1 X125.500 Y121.852 E12.22503
G1 X123.507 Y124.066 E12.28557
G1 X122.467 Y125.002 E12.31399
G1 X120.057 Y126.753 E12.37454
G1 X118.846 Y127.452 E12.40296
G1 X116.125 Y128.664 E12.46351
G1 X114.794 Y129.096 E12.49193
G1 X111.880 Y129.716 E12.55248
G1 X110.489 Y129.862 E12.58090
G1 X59.511 Y129.862 E13.61696
G1 X58.120 Y129.716 E13.64538
G1 X55.206 Y129.096 E13.70592
G1 X53.876 Y128.664 E13.73435
G1 X53.717 Y128.593 E13.73788
G1 X51.154 Y127.452 E13.79489
G1 X49.943 Y126.753 E13.82331
G1 X47.533 Y125.002 E13.88386
G1 X46.493 Y124.066 E13.91228
G1 X44.500 Y121.852 E13.97283
G1 X43.678 Y120.721 E14.00125
G1 X42.188 Y118.141 E14.06179
G1 X41.620 Y116.863 E14.09022
G1 X40.699 Y114.030 E14.15076
G1 X40.408 Y112.662 E14.17918
G1 X40.097 Y109.699 E14.23973
G1 X40.060 Y109.000 E14.25396
G1 X40.060 Y61.000 E15.22947
G1 X40.097 Y60.301 E15.24370
G1 X40.408 Y57.338 E15.30425
G1 X40.699 Y55.970 E15.33267
G1 X41.620 Y53.137 E15.39321
G1 X42.188 Y51.859 E15.42164
G1 X43.678 Y49.279 E15.48218
G1 X44.500 Y48.148 E15.51060
G1 X46.453 Y45.978 E15.56993
G1 X46.750 Y46.165 F4800.000
G1 X47.735 Y45.277 E15.59688 F1800.000
G1 X50.145 Y43.526 E15.65743
G1 X51.294 Y42.863 E15.68439
G1 X54.016 Y41.651 E15.74493
G1 X55.277 Y41.241 E15.77189
G1 X58.192 Y40.622 E15.83244
G1 X59.510 Y40.483 E15.85939
G1 X110.489 Y40.483 E16.89545
G1 X111.808 Y40.622 E16.92240
G1 X114.722 Y41.241 E16.98295
G1 X115.984 Y41.651 E17.00991
G1 X118.706 Y42.863 E17.07045
G1 X119.854 Y43.526 E17.09741
G1 X122.265 Y45.277 E17.15796
G1 X123.250 Y46.165 E17.18491
G1 X125.244 Y48.379 E17.24546
G1 X126.023 Y49.452 E17.27242
G1 X127.513 Y52.032 E17.33296
G1 X128.052 Y53.243 E17.35992
G1 X128.973 Y56.077 E17.42046
G1 X129.249 Y57.374 E17.44742
G1 X129.560 Y60.337 E17.50796
G1 X129.595 Y61.000 E17.52146
G1 X129.595 Y109.000 E18.49697
G1 X129.560 Y109.663 E18.51047
G1 X129.249 Y112.626 E18.57102
G1 X128.973 Y113.923 E18.59797
G1 X128.052 Y116.757 E18.65852
G1 X127.513 Y117.968 E18.68548
G1 X126.023 Y120.548 E18.74602
G1 X125.244 Y121.621 E18.77298
G1 X123.250 Y123.835 E18.83352
G1 X122.265 Y124.723 E18.86048
G1 X119.855 Y126.474 E18.92102
G1 X118.706 Y127.137 E18.94798
G1 X115.984 Y128.349 E19.00852
G1 X114.723 Y128.759 E19.03548
G1 X114.553 Y128.795 E19.03902
G1 X111.808 Y129.378 E19.09603
G1 X110.489 Y129.517 E19.12298
G1 X59.511 Y129.517 E20.15904
G1 X58.192 Y129.378 E20.18600
G1 X55.278 Y128.759 E20.24654
G1 X54.016 Y128.349 E20.27350
G1 X53.857 Y128.278 E20.27703
G1 X51.294 Y127.137 E20.33405
G1 X50.146 Y126.474 E20.36100
G1 X47.735 Y124.723 E20.42155
G1 X46.750 Y123.835 E20.44851
G1 X44.756 Y121.621 E20.50905
G1 X43.977 Y120.548 E20.53601
G1 X42.487 Y117.968 E20.59655
G1 X41.948 Y116.757 E20.62351
G1 X41.027 Y113.923 E20.68405
G1 X40.751 Y112.626 E20.71101
G1 X40.440 Y109.663 E20.77155
G1 X40.405 Y109.000 E20.78505
G1 X40.405 Y61.000 E21.76057
G1 X40.440 Y60.337 E21.77406
G1 X40.751 Y57.374 E21.83461
G1 X41.027 Y56.077 E21.86156
G1 X41.948 Y53.243 E21.92211
G1 X42.487 Y52.032 E21.94907
G1 X43.977 Y49.452 E22.00961
G1 X44.756 Y48.379 E22.03657
G1 X46.710 Y46.209 E22.09589
G1 E13.09589 F1200.00000
G92 E0
G1 X72.846 Y49.627 F4800.000
G1 E9.00000 F1200.00000
G1 X73.154 Y49.627 E9.00624 F1800.000
G1 X73.878 Y48.823 E9.02823
G1 X74.052 Y48.666 E9.03301
G1 X76.652 Y46.776 E9.09833
G1 X76.856 Y46.659 E9.10310
G1 X79.792 Y45.352 E9.16842
G1 X80.016 Y45.279 E9.17320
G1 X83.159 Y44.611 E9.23852
G1 X83.393 Y44.586 E9.24329
G1 X86.607 Y44.586 E9.30861
G1 X86.841 Y44.611 E9.31339
G1 X89.984 Y45.279 E9.37870
G1 X90.208 Y45.352 E9.38348
G1 X93.144 Y46.659 E9.44880
G1 X93.348 Y46.776 E9.45358
G1 X95.948 Y48.666 E9.51890
G1 X96.122 Y48.823 E9.52367
G1 X96.846 Y49.627 E9.54566
G1 X97.154 Y49.627 E9.55190
G1 X97.878 Y48.823 E9.57389
G1 X98.052 Y48.666 E9.57867
G1 X100.652 Y46.776 E9.64399
G1 X100.856 Y46.659 E9.64876
G1 X103.792 Y45.352 E9.71408
G1 X104.016 Y45.279 E9.71886
G1 X107.159 Y44.611 E9.78418
G1 X107.393 Y44.586 E9.78895
G1 X110.607 Y44.586 E9.85427
G1 X110.841 Y44.611 E9.85905
G1 X113.984 Y45.279 E9.92437
G1 X114.208 Y45.352 E9.92914
G1 X117.144 Y46.659 E9.99446
G1 X117.348 Y46.776 E9.99924
G1 X119.948 Y48.666 E10.06456
G1 X120.122 Y48.823 E10.06933
G1 X122.078 Y50.995 E10.12873
G1 X122.273 Y51.211 E10.13465
G1 X122.411 Y51.401 E10.13943
G1 X124.018 Y54.185 E10.20475
G1 X124.114 Y54.400 E10.20952
G1 X125.107 Y57.456 E10.27484
G1 X125.156 Y57.686 E10.27962
G1 X125.492 Y60.882 E10.34494
G1 X125.492 Y61.117 E10.34971
G1 X125.156 Y64.314 E10.41503
G1 X125.107 Y64.544 E10.41981
G1 X124.114 Y67.601 E10.48513
G1 X124.018 Y67.815 E10.48990
G1 X122.411 Y70.599 E10.55522
G1 X122.273 Y70.789 E10.56000
G1 X120.401 Y72.868 E10.61685
G1 X120.401 Y73.132 E10.62223
G1 X122.273 Y75.211 E10.67909
G1 X122.411 Y75.401 E10.68386
G1 X124.018 Y78.185 E10.74918
G1 X124.114 Y78.400 E10.75396
G1 X125.107 Y81.456 E10.81928
G1 X125.156 Y81.686 E10.82405
G1 X125.492 Y84.882 E10.88937
G1 X125.492 Y85.117 E10.89415
G1 X125.156 Y88.314 E10.95947
G1 X125.107 Y88.544 E10.96424
G1 X124.114 Y91.601 E11.02956
G1 X124.018 Y91.815 E11.03434
G1 X122.411 Y94.599 E11.09966
G1 X122.273 Y94.789 E11.10443
G1 X120.401 Y96.868 E11.16129
G1 X120.401 Y97.132 E11.16667
G1 X122.273 Y99.211 E11.22352
G1 X122.411 Y99.401 E11.22830
G1 X124.018 Y102.185 E11.29362
G1 X124.114 Y102.400 E11.29839
G1 X125.107 Y105.456 E11.36371
G1 X125.156 Y105.686 E11.36849
G1 X125.492 Y108.882 E11.43380
G1 X125.492 Y109.117 E11.43858
G1 X125.156 Y112.314 E11.50390
G1 X125.107 Y112.544 E11.50868
G1 X124.114 Y115.600 E11.57400
G1 X124.018 Y115.815 E11.57877
G1 X122.411 Y118.599 E11.64409
G1 X122.273 Y118.789 E11.64887
G1 X120.122 Y121.177 E11.71419
G1 X119.948 Y121.334 E11.71896
G1 X117.348 Y123.224 E11.78428
G1 X117.144 Y123.341 E11.78906
G1 X114.208 Y124.648 E11.85438
G1 X113.984 Y124.721 E11.85915
G1 X110.841 Y125.389 E11.92447
G1 X110.607 Y125.414 E11.92925
G1 X107.393 Y125.414 E11.99456
G1 X107.159 Y125.389 E11.99934
G1 X104.016 Y124.721 E12.06466
G1 X103.792 Y124.648 E12.06943
G1 X100.856 Y123.341 E12.13476
G1 X100.652 Y123.224 E12.13953
G1 X98.052 Y121.334 E12.20485
G1 X97.878 Y121.177 E12.20963
G1 X97.154 Y120.373 E12.23162
G1 X96.846 Y120.373 E12.23786
G1 X96.122 Y121.177 E12.25985
G1 X95.948 Y121.334 E12.26462
G1 X93.348 Y123.224 E12.32994
G1 X93.144 Y123.341 E12.33472
G1 X90.208 Y124.648 E12.40004
G1 X89.984 Y124.721 E12.40481
G1 X86.841 Y125.389 E12.47013
G1 X86.607 Y125.414 E12.47491
G1 X83.393 Y125.414 E12.54023
G1 X83.159 Y125.389 E12.54500
G1 X80.016 Y124.721 E12.61032
G1 X79.792 Y124.648 E12.61510
G1 X76.856 Y123.341 E12.68042
G1 X76.652 Y123.224 E12.68519
G1 X74.052 Y121.334 E12.75051
G1 X73.878 Y121.177 E12.75529
G1 X73.154 Y120.373 E12.77728
G1 X72.846 Y120.373 E12.78352
G1 X72.122 Y121.177 E12.80551
G1 X71.948 Y121.334 E12.81028
G1 X69.348 Y123.224 E12.87560
G1 X69.144 Y123.341 E12.88038
G1 X66.208 Y124.648 E12.94570
G1 X65.984 Y124.721 E12.95047
G1 X62.841 Y125.389 E13.01579
G1 X62.607 Y125.414 E13.02057
G1 X59.393 Y125.414 E13.08589
G1 X59.159 Y125.389 E13.09066
G1 X56.016 Y124.721 E13.15598
G1 X55.792 Y124.648 E13.16076
G1 X52.856 Y123.341 E13.22608
G1 X52.652 Y123.224 E13.23085
G1 X50.052 Y121.334 E13.29617
G1 X49.878 Y121.177 E13.30095
G1 X47.727 Y118.789 E13.36627
G1 X47.589 Y118.599 E13.37104
G1 X45.982 Y115.815 E13.43636
G1 X45.886 Y115.600 E13.44114
G1 X44.893 Y112.544 E13.50646
G1 X44.844 Y112.314 E13.51123
G1 X44.539 Y109.407 E13.57063
G1 X44.508 Y109.117 E13.57655
G1 X44.508 Y108.883 E13.58133
G1 X44.844 Y105.686 E13.64665
G1 X44.893 Y105.456 E13.65142
G1 X45.886 Y102.400 E13.71674
G1 X45.982 Y102.185 E13.72152
G1 X47.589 Y99.401 E13.78683
G1 X47.727 Y99.211 E13.79161
G1 X49.599 Y97.132 E13.84847
G1 X49.599 Y96.868 E13.85385
G1 X47.727 Y94.789 E13.91070
G1 X47.589 Y94.599 E13.91548
G1 X45.524 Y91.021 E13.99942
G1 X45.595 Y90.897 E14.00233
G1 X45.610 Y90.752 E14.00531
G1 X44.893 Y88.544 E14.05249
G1 X44.844 Y88.314 E14.05727
G1 X44.508 Y85.117 E14.12259
G1 X44.508 Y84.883 E14.12736
G1 X44.844 Y81.686 E14.19268
G1 X44.893 Y81.456 E14.19746
G1 X45.886 Y78.400 E14.26278
G1 X45.982 Y78.185 E14.26755
G1 X47.589 Y75.401 E14.33287
G1 X47.727 Y75.211 E14.33765
G1 X49.599 Y73.132 E14.39450
G1 X49.599 Y72.868 E14.39988
G1 X47.727 Y70.789 E14.45674
G1 X47.589 Y70.599 E14.46151
G1 X45.982 Y67.815 E14.52683
G1 X45.886 Y67.600 E14.53161
G1 X44.983 Y64.821 E14.59101
G1 X44.893 Y64.544 E14.59693
G1 X44.844 Y64.314 E14.60170
G1 X44.508 Y61.117 E14.66702
G1 X44.508 Y60.883 E14.67180
G1 X44.844 Y57.686 E14.73712
G1 X44.893 Y57.456 E14.74189
G1 X45.886 Y54.400 E14.80721
G1 X45.982 Y54.185 E14.81199
G1 X47.589 Y51.401 E14.87731
G1 X47.727 Y51.211 E14.88208
G1 X49.878 Y48.823 E14.94740
G1 X50.052 Y48.666 E14.95218
G1 X52.652 Y46.776 E15.01750
G1 X52.856 Y46.659 E15.02227
G1 X55.792 Y45.352 E15.08759
G1 X56.016 Y45.279 E15.09237
G1 X59.159 Y44.611 E15.15769
G1 X59.393 Y44.586 E15.16246
G1 X62.607 Y44.586 E15.22778
G1 X62.841 Y44.611 E15.23255
G1 X65.984 Y45.279 E15.29787
G1 X66.208 Y45.352 E15.30265
G1 X69.144 Y46.659 E15.36797
G1 X69.348 Y46.776 E15.37275
G1 X71.948 Y48.666 E15.43807
G1 X72.122 Y48.823 E15.44284
G1 X72.806 Y49.582 E15.46361
G1 X72.846 Y50.142 F4800.000
G1 X73.154 Y50.142 E15.46985 F1800.000
G1 X74.122 Y49.067 E15.49926
G1 X74.269 Y48.934 E15.50330
G1 X76.840 Y47.066 E15.56788
G1 X77.013 Y46.967 E15.57193
G1 X79.916 Y45.674 E15.63651
G1 X80.105 Y45.613 E15.64055
G1 X83.213 Y44.952 E15.70514
G1 X83.411 Y44.931 E15.70918
G1 X86.589 Y44.931 E15.77376
G1 X86.787 Y44.952 E15.77780
G1 X89.895 Y45.613 E15.84239
G1 X90.084 Y45.674 E15.84643
G1 X92.987 Y46.967 E15.91101
G1 X93.160 Y47.066 E15.91505
G1 X95.731 Y48.934 E15.97964
G1 X95.878 Y49.067 E15.98368
G1 X96.846 Y50.142 E16.01309
G1 X97.154 Y50.142 E16.01933
G1 X98.122 Y49.067 E16.04873
G1 X98.269 Y48.934 E16.05277
G1 X100.840 Y47.066 E16.11736
G1 X101.013 Y46.967 E16.12140
G1 X103.916 Y45.674 E16.18599
G1 X104.105 Y45.613 E16.19003
G1 X107.213 Y44.952 E16.25461
G1 X107.411 Y44.931 E16.25865
G1 X110.589 Y44.931 E16.32324
G1 X110.787 Y44.952 E16.32728
G1 X113.895 Y45.613 E16.39186
G1 X114.084 Y45.674 E16.39590
G1 X116.987 Y46.967 E16.46049
G1 X117.160 Y47.066 E16.46453
G1 X119.731 Y48.934 E16.52911
G1 X119.878 Y49.067 E16.53315
G1 X121.822 Y51.226 E16.59219
G1 X122.122 Y51.590 E16.60177
G1 X123.710 Y54.342 E16.66635
G1 X123.791 Y54.523 E16.67039
G1 X124.773 Y57.546 E16.73498
G1 X124.815 Y57.740 E16.73902
G1 X125.147 Y60.901 E16.80360
G1 X125.147 Y61.099 E16.80764
G1 X124.815 Y64.260 E16.87223
G1 X124.773 Y64.454 E16.87627
G1 X123.791 Y67.477 E16.94086
G1 X123.710 Y67.658 E16.94490
G1 X122.122 Y70.410 E17.00948
G1 X122.005 Y70.571 E17.01352
G1 X119.937 Y72.868 E17.07632
G1 X119.937 Y73.132 E17.08170
G1 X122.005 Y75.429 E17.14450
G1 X122.122 Y75.590 E17.14854
G1 X123.710 Y78.342 E17.21312
G1 X123.791 Y78.523 E17.21716
G1 X124.773 Y81.546 E17.28175
G1 X124.815 Y81.740 E17.28579
G1 X125.147 Y84.901 E17.35037
G1 X125.147 Y85.099 E17.35442
G1 X124.815 Y88.260 E17.41900
G1 X124.773 Y88.454 E17.42304
G1 X123.791 Y91.477 E17.48763
G1 X123.710 Y91.658 E17.49167
G1 X122.122 Y94.410 E17.55625
G1 X122.005 Y94.571 E17.56029
G1 X119.937 Y96.868 E17.62309
G1 X119.937 Y97.132 E17.62847
G1 X122.005 Y99.429 E17.69127
G1 X122.122 Y99.590 E17.69531
G1 X123.710 Y102.342 E17.75990
G1 X123.791 Y102.523 E17.76394
G1 X124.773 Y105.546 E17.82852
G1 X124.815 Y105.740 E17.83256
G1 X125.147 Y108.901 E17.89715
G1 X125.147 Y109.099 E17.90119
G1 X124.815 Y112.260 E17.96577
G1 X124.773 Y112.454 E17.96981
G1 X123.791 Y115.477 E18.03440
G1 X123.710 Y115.658 E18.03844
G1 X122.122 Y118.410 E18.10302
G1 X122.005 Y118.571 E18.10706
G1 X119.878 Y120.933 E18.17165
G1 X119.730 Y121.066 E18.17569
G1 X117.160 Y122.934 E18.24027
G1 X116.987 Y123.033 E18.24432
G1 X114.084 Y124.326 E18.30890
G1 X113.895 Y124.387 E18.31294
G1 X110.787 Y125.048 E18.37753
G1 X110.589 Y125.069 E18.38157
G1 X107.411 Y125.069 E18.44615
G1 X107.213 Y125.048 E18.45019
G1 X104.105 Y124.387 E18.51478
G1 X103.916 Y124.326 E18.51882
G1 X101.013 Y123.033 E18.58340
G1 X100.840 Y122.934 E18.58744
G1 X98.269 Y121.066 E18.65203
G1 X98.122 Y120.933 E18.65607
G1 X97.154 Y119.858 E18.68548
G1 X96.846 Y119.858 E18.69172
G1 X95.878 Y120.933 E18.72112
G1 X95.731 Y121.066 E18.72516
G1 X93.160 Y122.934 E18.78975
G1 X92.987 Y123.033 E18.79379
G1 X90.084 Y124.326 E18.85838
G1 X89.895 Y124.387 E18.86242
G1 X86.787 Y125.048 E18.92700
G1 X86.589 Y125.069 E18.93104
G1 X83.411 Y125.069 E18.99563
G1 X83.213 Y125.048 E18.99967
G1 X80.105 Y124.387 E19.06425
G1 X79.916 Y124.326 E19.06829
G1 X77.013 Y123.033 E19.13288
G1 X76.840 Y122.934 E19.13692
G1 X74.269 Y121.066 E19.20150
G1 X74.122 Y120.933 E19.20554
G1 X73.154 Y119.858 E19.23495
G1 X72.846 Y119.858 E19.24119
G1 X71.878 Y120.933 E19.27060
G1 X71.730 Y121.066 E19.27464
G1 X69.160 Y122.934 E19.33922
G1 X68.987 Y123.033 E19.34327
G1 X66.084 Y124.326 E19.40785
G1 X65.895 Y124.387 E19.41189
G1 X62.787 Y125.048 E19.47648
G1 X62.589 Y125.069 E19.48052
G1 X59.411 Y125.069 E19.54510
G1 X59.213 Y125.048 E19.54914
G1 X56.105 Y124.387 E19.61373
G1 X55.916 Y124.326 E19.61777
G1 X53.013 Y123.033 E19.68235
G1 X52.840 Y122.934 E19.68639
G1 X50.269 Y121.066 E19.75098
G1 X50.122 Y120.933 E19.75502
G1 X47.995 Y118.571 E19.81960
G1 X47.878 Y118.410 E19.82364
G1 X46.290 Y115.658 E19.88823
G1 X46.209 Y115.477 E19.89227
G1 X45.227 Y112.454 E19.95686
G1 X45.185 Y112.260 E19.96090
G1 X44.882 Y109.371 E20.01993
G1 X44.853 Y108.901 E20.02951
G1 X45.185 Y105.740 E20.09409
G1 X45.227 Y105.546 E20.09813
G1 X46.209 Y102.523 E20.16272
G1 X46.290 Y102.342 E20.16676
G1 X47.878 Y99.590 E20.23134
G1 X47.995 Y99.429 E20.23538
G1 X50.063 Y97.132 E20.29818
G1 X50.063 Y96.868 E20.30356
G1 X47.995 Y94.571 E20.36636
G1 X47.878 Y94.410 E20.37040
G1 X45.922 Y91.021 E20.44994
G1 X45.971 Y90.937 E20.45192
G1 X45.986 Y90.791 E20.45490
G1 X45.227 Y88.454 E20.50483
G1 X45.185 Y88.260 E20.50887
G1 X44.853 Y85.099 E20.57346
G1 X44.853 Y84.901 E20.57750
G1 X45.185 Y81.740 E20.64208
G1 X45.227 Y81.546 E20.64612
G1 X46.209 Y78.523 E20.71071
G1 X46.290 Y78.342 E20.71475
G1 X47.878 Y75.590 E20.77933
G1 X47.995 Y75.429 E20.78337
G1 X50.063 Y73.132 E20.84617
G1 X50.063 Y72.868 E20.85155
G1 X47.995 Y70.571 E20.91435
G1 X47.878 Y70.410 E20.91839
G1 X46.290 Y67.658 E20.98298
G1 X46.209 Y67.477 E20.98702
G1 X45.311 Y64.714 E21.04605
G1 X45.185 Y64.260 E21.05563
G1 X44.853 Y61.099 E21.12022
G1 X44.853 Y60.901 E21.12426
G1 X45.185 Y57.740 E21.18884
G1 X45.227 Y57.546 E21.19288
G1 X46.209 Y54.523 E21.25747
G1 X46.290 Y54.342 E21.26151
G1 X47.878 Y51.590 E21.32609
G1 X47.995 Y51.429 E21.33013
