; generated by Slic3r 1.2.9 on 2015-10-03 at 17:01:27

; external perimeters extrusion width = 0.40mm
; perimeters extrusion width = 0.48mm
; infill extrusion width = 0.48mm
; solid infill extrusion width = 0.48mm
; top infill extrusion width = 0.48mm

M107
M104 S300 ; set temperature
G28 ; home all axes
G1 Z5 F5000 ; lift nozzle

M109 S300 ; wait for temperature to be reached
G21 ; set units to millimeters
G90 ; use absolute coordinates
M82 ; use absolute distances for extrusion
G92 E0
G1 Z0.350 F3000.000
G1 E-9.00000 F4800.00000
G92 E0
G1 X70.493 Y69.934 F3000.000
G1 E9.00000 F4800.00000
G1 X71.533 Y68.998 E9.02842 F1800.000
G1 X73.943 Y67.247 E9.08896
G1 X75.154 Y66.548 E9.11739
G1 X77.876 Y65.336 E9.17793
G1 X79.206 Y64.904 E9.20636
G1 X82.120 Y64.284 E9.26690
G1 X83.510 Y64.138 E9.29532
G1 X86.490 Y64.138 E9.35587
G1 X87.880 Y64.284 E9.38429
G1 X90.794 Y64.904 E9.44483 F1800.000
G1 X92.124 Y65.336 E9.47326
G1 X94.846 Y66.548 E9.53380
G1 X96.057 Y67.247 E9.56223
G1 X98.467 Y68.998 E9.62277
G1 X99.507 Y69.934 E9.65119
G1 X101.500 Y72.148 E9.71174
G1 X102.322 Y73.279 E9.74016
G1 X103.812 Y75.859 E9.80070
G1 X104.380 Y77.137 E9.82912
G1 X105.301 Y79.970 E9.88967
G1 X105.592 Y81.338 E9.91809
G1 X105.903 Y84.301 E9.97864
G1 X105.903 Y85.699 E10.00706
G1 X105.592 Y88.662 E10.06761
G1 X105.301 Y90.030 E10.09603
G1 X104.380 Y92.863 E10.15657
G1 X103.812 Y94.141 E10.18499
G1 X102.387 Y96.608 E10.24289
G1 X101.500 Y97.852 E10.27395
G1 X99.507 Y100.066 E10.33449
G1 X98.467 Y101.002 E10.36291
G1 X96.057 Y102.753 E10.42346
G1 X94.846 Y103.452 E10.45188
G1 X92.124 Y104.664 E10.51243
G1 X90.794 Y105.096 E10.54085
G1 X87.880 Y105.716 E10.60140
G1 X86.490 Y105.862 E10.62982
G1 X83.510 Y105.862 E10.69036
G1 X82.120 Y105.716 E10.71878
G1 X79.206 Y105.096 E10.77932
G1 X77.876 Y104.664 E10.80775
G1 X75.154 Y103.452 E10.86829
G1 X73.943 Y102.753 E10.89672
G1 X71.533 Y101.002 E10.95726
G1 X70.493 Y100.066 E10.98568
G1 X68.500 Y97.852 E11.04623
G1 X67.678 Y96.721 E11.07465
G1 X66.188 Y94.141 E11.13520
G1 X65.620 Y92.863 E11.16362
G1 X64.699 Y90.030 E11.22416
G1 X64.408 Y88.662 E11.25259
G1 X64.110 Y85.829 E11.31048
G1 X64.097 Y84.301 E11.34154
G1 X64.408 Y81.338 E11.40208
G1 X64.699 Y79.970 E11.43051
G1 X65.620 Y77.137 E11.49105
G1 X66.188 Y75.859 E11.51947
G1 X67.678 Y73.279 E11.58002
G1 X68.500 Y72.148 E11.60844
G1 X70.453 Y69.978 E11.66777
G1 X70.710 Y70.209 F3000.000
G1 X71.735 Y69.277 E11.69593 F1800.000
G1 X74.145 Y67.526 E11.75648
G1 X75.294 Y66.863 E11.78344
G1 X78.016 Y65.651 E11.84398
G1 X79.278 Y65.241 E11.87094
G1 X82.191 Y64.622 E11.93149
G1 X83.510 Y64.483 E11.95844
G1 X86.490 Y64.483 E12.01899
G1 X87.808 Y64.622 E12.04594
G1 X90.723 Y65.241 E12.10648 F1800.000
G1 X91.984 Y65.651 E12.13344
G1 X94.706 Y66.863 E12.19399
G1 X95.855 Y67.526 E12.22095
G1 X98.265 Y69.277 E12.28149
G1 X99.250 Y70.165 E12.30845
G1 X101.244 Y72.378 E12.36899
G1 X102.023 Y73.452 E12.39595
G1 X103.513 Y76.032 E12.45649
G1 X104.052 Y77.243 E12.48345
G1 X104.973 Y80.077 E12.54399
G1 X105.249 Y81.374 E12.57095
G1 X105.560 Y84.337 E12.63150
G1 X105.560 Y85.663 E12.65846
G1 X105.249 Y88.626 E12.71900
G1 X104.973 Y89.923 E12.74596
G1 X104.052 Y92.757 E12.80650
G1 X103.513 Y93.968 E12.83346
G1 X102.089 Y96.435 E12.89135
G1 X101.244 Y97.622 E12.92095
G1 X99.250 Y99.835 E12.98149
G1 X98.265 Y100.723 E13.00845
G1 X95.855 Y102.474 E13.06899
G1 X94.706 Y103.137 E13.09595
G1 X91.984 Y104.349 E13.15649
G1 X90.723 Y104.759 E13.18346
G1 X87.809 Y105.378 E13.24400
G1 X86.490 Y105.517 E13.27095
G1 X83.510 Y105.517 E13.33150
G1 X82.191 Y105.378 E13.35845
G1 X79.277 Y104.759 E13.41900
G1 X78.016 Y104.349 E13.44596
G1 X75.294 Y103.137 E13.50650
G1 X74.146 Y102.474 E13.53346
G1 X71.735 Y100.723 E13.59401
G1 X70.750 Y99.835 E13.62096
G1 X68.756 Y97.622 E13.68150
G1 X67.977 Y96.548 E13.70846
G1 X66.487 Y93.968 E13.76901
G1 X65.948 Y92.757 E13.79596
G1 X65.027 Y89.923 E13.85651
G1 X64.751 Y88.626 E13.88347
G1 X64.453 Y85.793 E13.94136
G1 X64.440 Y84.337 E13.97095
G1 X64.751 Y81.374 E14.03150
G1 X65.027 Y80.077 E14.05846
G1 X65.948 Y77.243 E14.11900
G1 X66.487 Y76.032 E14.14596
G1 X67.977 Y73.452 E14.20650
G1 X68.756 Y72.378 E14.23346
G1 X70.669 Y70.254 E14.29157
G1 E5.29157 F4800.00000
G92 E0
G1 X72.437 Y71.845 F3000.000
G1 E9.00000 F4800.00000
G1 X72.657 Y71.602 E9.00666 F1800.000
G1 X72.965 Y71.324 E9.01511
G1 X75.712 Y69.328 E9.08410
G1 X76.072 Y69.120 E9.09255
G1 X79.173 Y67.740 E9.16155
G1 X79.569 Y67.611 E9.17000
G1 X82.889 Y66.905 E9.23899
G1 X83.303 Y66.862 E9.24744
G1 X86.697 Y66.862 E9.31643
G1 X87.111 Y66.905 E9.32488
G1 X90.431 Y67.611 E9.39387 F1800.000
G1 X90.827 Y67.740 E9.40232
G1 X93.928 Y69.120 E9.47131
G1 X94.288 Y69.328 E9.47976
G1 X97.035 Y71.324 E9.54876
G1 X97.343 Y71.602 E9.55720
G1 X99.615 Y74.125 E9.62620
G1 X99.859 Y74.461 E9.63465
G1 X101.557 Y77.401 E9.70364
G1 X101.726 Y77.781 E9.71209
G1 X102.775 Y81.009 E9.78108
G1 X102.861 Y81.416 E9.78953
G1 X103.216 Y84.792 E9.85852
G1 X103.216 Y85.208 E9.86697
G1 X102.861 Y88.584 E9.93596
G1 X102.775 Y88.991 E9.94441
G1 X101.726 Y92.219 E10.01341
G1 X101.557 Y92.599 E10.02185
G1 X99.859 Y95.539 E10.09085
G1 X99.615 Y95.875 E10.09930
G1 X97.344 Y98.398 E10.16829
G1 X97.035 Y98.676 E10.17674
G1 X94.288 Y100.672 E10.24573
G1 X93.928 Y100.880 E10.25418
G1 X90.827 Y102.260 E10.32317
G1 X90.431 Y102.389 E10.33162
G1 X87.111 Y103.095 E10.40062
G1 X86.697 Y103.138 E10.40906
G1 X83.303 Y103.138 E10.47806
G1 X82.889 Y103.095 E10.48650
G1 X79.569 Y102.389 E10.55550
G1 X79.173 Y102.260 E10.56395
G1 X76.072 Y100.880 E10.63294
G1 X75.712 Y100.672 E10.64139
G1 X72.965 Y98.676 E10.71038
G1 X72.656 Y98.398 E10.71883
G1 X70.385 Y95.875 E10.78782
G1 X70.141 Y95.539 E10.79627
G1 X68.443 Y92.599 E10.86526
G1 X68.274 Y92.219 E10.87371
G1 X67.225 Y88.991 E10.94271
G1 X67.139 Y88.584 E10.95116
G1 X66.819 Y85.544 E11.01328
G1 X66.784 Y85.208 E11.02015
G1 X66.784 Y84.792 E11.02860
G1 X67.139 Y81.416 E11.09759
G1 X67.225 Y81.009 E11.10604
G1 X68.274 Y77.781 E11.17503
G1 X68.443 Y77.401 E11.18348
G1 X70.141 Y74.461 E11.25247
G1 X70.385 Y74.125 E11.26092
G1 X72.397 Y71.890 E11.32203
G1 X72.653 Y72.121 F3000.000
G1 X72.901 Y71.846 E11.32955 F1800.000
G1 X73.183 Y71.592 E11.33726
G1 X75.900 Y69.618 E11.40552
G1 X76.229 Y69.428 E11.41323
G1 X79.297 Y68.062 E11.48149
G1 X79.658 Y67.945 E11.48921
G1 X82.943 Y67.246 E11.55747
G1 X83.321 Y67.207 E11.56518
G1 X86.679 Y67.207 E11.63344
G1 X87.057 Y67.246 E11.64115 F1800.000
G1 X90.342 Y67.945 E11.70941
G1 X90.703 Y68.062 E11.71712
G1 X93.771 Y69.428 E11.78538
G1 X94.100 Y69.618 E11.79310
G1 X96.817 Y71.592 E11.86136
G1 X97.099 Y71.846 E11.86907
G1 X99.132 Y74.104 E11.93082
G1 X99.347 Y74.342 E11.93733
G1 X99.570 Y74.649 E11.94504
G1 X101.249 Y77.558 E12.01330
G1 X101.403 Y77.904 E12.02101
G1 X102.441 Y81.099 E12.08927
G1 X102.520 Y81.470 E12.09699
G1 X102.871 Y84.810 E12.16524
G1 X102.871 Y85.190 E12.17296
G1 X102.520 Y88.530 E12.24122
G1 X102.441 Y88.901 E12.24893
G1 X101.403 Y92.096 E12.31719
G1 X101.249 Y92.442 E12.32490
G1 X99.570 Y95.351 E12.39316
G1 X99.347 Y95.658 E12.40088
G1 X97.099 Y98.154 E12.46913
G1 X96.817 Y98.408 E12.47685
G1 X94.100 Y100.382 E12.54511
G1 X93.771 Y100.572 E12.55282
G1 X90.703 Y101.938 E12.62108
G1 X90.342 Y102.055 E12.62879
G1 X87.057 Y102.754 E12.69705
G1 X86.679 Y102.793 E12.70477
G1 X83.321 Y102.793 E12.77302
G1 X82.943 Y102.754 E12.78074
G1 X79.658 Y102.055 E12.84899
G1 X79.297 Y101.938 E12.85671
G1 X76.229 Y100.572 E12.92497
G1 X75.900 Y100.382 E12.93268
G1 X73.183 Y98.408 E13.00094
G1 X72.901 Y98.154 E13.00865
G1 X70.653 Y95.658 E13.07691
G1 X70.430 Y95.351 E13.08463
G1 X68.751 Y92.442 E13.15289
G1 X68.597 Y92.096 E13.16060
G1 X67.559 Y88.901 E13.22886
G1 X67.480 Y88.530 E13.23657
G1 X67.162 Y85.508 E13.29832
G1 X67.129 Y85.190 E13.30483
G1 X67.129 Y84.810 E13.31254
G1 X67.480 Y81.470 E13.38080
G1 X67.559 Y81.099 E13.38852
G1 X68.597 Y77.904 E13.45677
G1 X68.751 Y77.558 E13.46449
G1 X70.430 Y74.649 E13.53275
G1 X70.653 Y74.342 E13.54046
G1 X72.613 Y72.165 E13.59999
G1 X72.869 Y72.396 F3000.000
G1 X73.145 Y72.090 E13.60835 F1800.000
G1 X73.400 Y71.860 E13.61533
G1 X76.088 Y69.907 E13.68285
G1 X76.385 Y69.736 E13.68983
G1 X79.421 Y68.384 E13.75736
G1 X79.747 Y68.278 E13.76434
G1 X82.997 Y67.588 E13.83186
G1 X83.339 Y67.552 E13.83884
G1 X86.661 Y67.552 E13.90636
G1 X87.003 Y67.588 E13.91334
G1 X90.253 Y68.278 E13.98087 F1800.000
G1 X90.579 Y68.384 E13.98785
G1 X93.615 Y69.736 E14.05537
G1 X93.912 Y69.907 E14.06235
G1 X96.600 Y71.860 E14.12987
G1 X96.855 Y72.090 E14.13685
G1 X98.876 Y74.335 E14.19824
G1 X99.078 Y74.559 E14.20438
G1 X99.280 Y74.837 E14.21136
G1 X100.941 Y77.714 E14.27888
G1 X101.081 Y78.028 E14.28586
G1 X102.108 Y81.188 E14.35338
G1 X102.179 Y81.524 E14.36036
G1 X102.526 Y84.828 E14.42789
G1 X102.526 Y85.172 E14.43487
G1 X102.179 Y88.476 E14.50239
G1 X102.108 Y88.812 E14.50937
G1 X101.081 Y91.972 E14.57689
G1 X100.941 Y92.286 E14.58387
G1 X99.280 Y95.163 E14.65139
G1 X99.078 Y95.441 E14.65837
G1 X96.855 Y97.910 E14.72590
G1 X96.600 Y98.140 E14.73288
G1 X93.912 Y100.093 E14.80040
G1 X93.615 Y100.264 E14.80738
G1 X90.579 Y101.616 E14.87490
G1 X90.253 Y101.722 E14.88189
G1 X87.003 Y102.412 E14.94941
G1 X86.661 Y102.448 E14.95639
G1 X83.339 Y102.448 E15.02391
G1 X82.997 Y102.412 E15.03089
G1 X79.747 Y101.722 E15.09841
G1 X79.421 Y101.616 E15.10539
G1 X76.385 Y100.264 E15.17292
G1 X76.088 Y100.093 E15.17990
G1 X73.400 Y98.140 E15.24742
G1 X73.145 Y97.910 E15.25440
G1 X70.922 Y95.441 E15.32192
G1 X70.720 Y95.163 E15.32890
G1 X69.059 Y92.286 E15.39643
G1 X68.919 Y91.972 E15.40340
G1 X67.892 Y88.812 E15.47093
G1 X67.821 Y88.476 E15.47791
G1 X67.505 Y85.472 E15.53929
G1 X67.474 Y85.172 E15.54543
G1 X67.474 Y84.828 E15.55241
G1 X67.821 Y81.524 E15.61993
G1 X67.892 Y81.188 E15.62691
G1 X68.919 Y78.028 E15.69444
G1 X69.059 Y77.715 E15.70142
G1 X70.720 Y74.837 E15.76894
G1 X70.922 Y74.559 E15.77592
G1 X72.829 Y72.441 E15.83386
G1 X73.086 Y72.672 F3000.000
G1 X73.389 Y72.334 E15.84308 F1800.000
G1 X73.617 Y72.129 E15.84932
G1 X76.276 Y70.197 E15.91611
G1 X76.542 Y70.043 E15.92235
G1 X79.545 Y68.707 E15.98914
G1 X79.837 Y68.612 E15.99539
G1 X83.051 Y67.929 E16.06218
G1 X83.357 Y67.897 E16.06842
G1 X86.643 Y67.897 E16.13521
G1 X86.949 Y67.929 E16.14145 F1800.000
G1 X90.163 Y68.612 E16.20824
G1 X90.455 Y68.707 E16.21449
G1 X93.458 Y70.043 E16.28128
G1 X93.724 Y70.197 E16.28752
G1 X96.383 Y72.129 E16.35431
G1 X96.611 Y72.334 E16.36056
G1 X98.620 Y74.566 E16.42157
G1 X98.810 Y74.777 E16.42735
G1 X98.990 Y75.025 E16.43359
G1 X100.634 Y77.871 E16.50038
G1 X100.759 Y78.152 E16.50662
G1 X101.774 Y81.277 E16.57341
G1 X101.838 Y81.578 E16.57966
G1 X102.182 Y84.846 E16.64645
G1 X102.182 Y85.154 E16.65269
G1 X101.838 Y88.422 E16.71948
G1 X101.774 Y88.723 E16.72573
G1 X100.759 Y91.848 E16.79251
G1 X100.634 Y92.129 E16.79876
G1 X98.990 Y94.975 E16.86555
G1 X98.810 Y95.223 E16.87179
G1 X96.611 Y97.666 E16.93858
G1 X96.383 Y97.871 E16.94483
G1 X93.724 Y99.803 E17.01161
G1 X93.458 Y99.957 E17.01786
G1 X90.455 Y101.293 E17.08465
G1 X90.163 Y101.388 E17.09089
G1 X86.949 Y102.071 E17.15768
G1 X86.643 Y102.103 E17.16393
G1 X83.357 Y102.103 E17.23072
G1 X83.051 Y102.071 E17.23696
G1 X79.837 Y101.388 E17.30375
G1 X79.544 Y101.293 E17.30999
G1 X76.542 Y99.957 E17.37678
G1 X76.276 Y99.803 E17.38303
G1 X73.617 Y97.871 E17.44982
G1 X73.389 Y97.666 E17.45606
G1 X71.190 Y95.223 E17.52285
G1 X71.010 Y94.975 E17.52910
G1 X69.366 Y92.129 E17.59588
G1 X69.241 Y91.848 E17.60213
G1 X68.226 Y88.723 E17.66892
G1 X68.162 Y88.422 E17.67516
G1 X67.848 Y85.436 E17.73618
G1 X67.818 Y85.154 E17.74195
G1 X67.818 Y84.846 E17.74820
G1 X68.162 Y81.578 E17.81499
G1 X68.226 Y81.277 E17.82123
G1 X69.241 Y78.152 E17.88802
G1 X69.366 Y77.871 E17.89426
G1 X71.010 Y75.025 E17.96105
G1 X71.190 Y74.777 E17.96730
G1 X73.045 Y72.716 E18.02365
G1 X73.302 Y72.947 F3000.000
G1 X73.633 Y72.579 E18.03372 F1800.000
G1 X73.835 Y72.397 E18.03923
G1 X76.464 Y70.487 E18.10528
G1 X76.699 Y70.351 E18.11079
G1 X79.668 Y69.029 E18.17685
G1 X79.926 Y68.945 E18.18236
G1 X83.105 Y68.270 E18.24841
G1 X83.375 Y68.241 E18.25392
G1 X86.625 Y68.241 E18.31998
G1 X86.895 Y68.270 E18.32548
G1 X90.074 Y68.945 E18.39154 F1800.000
G1 X90.332 Y69.029 E18.39705
G1 X93.301 Y70.351 E18.46310
G1 X93.536 Y70.487 E18.46862
G1 X96.165 Y72.397 E18.53467
G1 X96.367 Y72.579 E18.54018
G1 X98.364 Y74.796 E18.60083
G1 X98.541 Y74.994 E18.60623
G1 X98.701 Y75.213 E18.61174
G1 X100.326 Y78.028 E18.67780
G1 X100.436 Y78.276 E18.68331
G1 X101.441 Y81.367 E18.74936
G1 X101.497 Y81.632 E18.75487
G1 X101.837 Y84.864 E18.82093
G1 X101.837 Y85.136 E18.82644
G1 X101.525 Y88.104 E18.88709
G1 X101.497 Y88.368 E18.89249
G1 X101.441 Y88.633 E18.89800
G1 X100.436 Y91.724 E18.96406
G1 X100.326 Y91.972 E18.96957
G1 X98.701 Y94.787 E19.03562
G1 X98.541 Y95.006 E19.04113
G1 X96.367 Y97.421 E19.10718
G1 X96.165 Y97.603 E19.11269
G1 X93.536 Y99.513 E19.17875
G1 X93.301 Y99.649 E19.18426
G1 X90.332 Y100.971 E19.25031
G1 X90.074 Y101.055 E19.25582
G1 X86.895 Y101.730 E19.32188
G1 X86.625 Y101.759 E19.32739
G1 X83.375 Y101.759 E19.39344
G1 X83.105 Y101.730 E19.39895
G1 X79.926 Y101.055 E19.46500
G1 X79.668 Y100.971 E19.47051
G1 X76.699 Y99.649 E19.53657
G1 X76.464 Y99.513 E19.54208
G1 X73.835 Y97.603 E19.60813
G1 X73.633 Y97.421 E19.61364
G1 X71.459 Y95.006 E19.67970
G1 X71.299 Y94.787 E19.68521
G1 X69.674 Y91.972 E19.75126
G1 X69.564 Y91.724 E19.75677
G1 X68.559 Y88.633 E19.82283
G1 X68.503 Y88.368 E19.82834
G1 X68.191 Y85.400 E19.88899
G1 X68.163 Y85.136 E19.89439
G1 X68.163 Y84.864 E19.89990
G1 X68.503 Y81.632 E19.96596
G1 X68.559 Y81.367 E19.97147
G1 X69.564 Y78.276 E20.03752
G1 X69.674 Y78.028 E20.04303
G1 X71.299 Y75.213 E20.10908
G1 X71.459 Y74.994 E20.11459
G1 X73.262 Y72.991 E20.16936
G1 X73.518 Y73.222 F3000.000
G1 X73.878 Y72.823 E20.18028 F1800.000
G1 X74.052 Y72.666 E20.18506
G1 X76.652 Y70.776 E20.25038
G1 X76.856 Y70.659 E20.25515
G1 X79.792 Y69.352 E20.32047
G1 X80.016 Y69.279 E20.32525
G1 X83.159 Y68.611 E20.39057
G1 X83.393 Y68.586 E20.39534
G1 X86.607 Y68.586 E20.46066
G1 X86.841 Y68.611 E20.46544 F1800.000
G1 X89.984 Y69.279 E20.53075
G1 X90.208 Y69.352 E20.53553
G1 X93.144 Y70.659 E20.60085
G1 X93.348 Y70.776 E20.60563
G1 X95.948 Y72.666 E20.67095
G1 X96.122 Y72.823 E20.67572
G1 X98.107 Y75.027 E20.73600
G1 X98.273 Y75.211 E20.74104
G1 X98.411 Y75.401 E20.74582
G1 X100.018 Y78.185 E20.81114
G1 X100.114 Y78.400 E20.81591
G1 X101.107 Y81.456 E20.88123
G1 X101.156 Y81.686 E20.88601
G1 X101.492 Y84.882 E20.95133
G1 X101.492 Y85.117 E20.95610
G1 X101.156 Y88.314 E21.02142
G1 X101.107 Y88.544 E21.02620
G1 X100.114 Y91.601 E21.09152
G1 X100.018 Y91.815 E21.09629
G1 X98.411 Y94.599 E21.16161
G1 X98.273 Y94.789 E21.16639
G1 X96.122 Y97.177 E21.23170
G1 X95.948 Y97.334 E21.23648
G1 X93.348 Y99.224 E21.30180
G1 X93.144 Y99.341 E21.30658
G1 X90.208 Y100.648 E21.37190
G1 X89.984 Y100.721 E21.37667
G1 X86.841 Y101.389 E21.44199
G1 X86.607 Y101.414 E21.44677
G1 X83.393 Y101.414 E21.51208
G1 X83.159 Y101.389 E21.51686
G1 X80.016 Y100.721 E21.58218
G1 X79.792 Y100.648 E21.58696
G1 X76.856 Y99.341 E21.65227
G1 X76.652 Y99.224 E21.65705
G1 X74.052 Y97.334 E21.72237
G1 X73.878 Y97.177 E21.72715
G1 X71.727 Y94.789 E21.79247
G1 X71.589 Y94.599 E21.79724
G1 X69.982 Y91.815 E21.86256
G1 X69.886 Y91.600 E21.86734
G1 X68.893 Y88.544 E21.93265
G1 X68.844 Y88.314 E21.93743
G1 X68.534 Y85.364 E21.99771
G1 X68.508 Y85.117 E22.00275
G1 X68.508 Y84.883 E22.00753
G1 X68.844 Y81.686 E22.07285
G1 X68.893 Y81.456 E22.07762
G1 X69.886 Y78.400 E22.14294
G1 X69.982 Y78.185 E22.14772
G1 X71.589 Y75.401 E22.21303
G1 X71.727 Y75.211 E22.21781
G1 X73.478 Y73.267 E22.27099
G1 X73.734 Y73.498 F3000.000
G1 X74.122 Y73.067 E22.28276 F1800.000
G1 X74.269 Y72.934 E22.28680
G1 X76.840 Y71.066 E22.35139
G1 X77.013 Y70.967 E22.35543
G1 X79.916 Y69.674 E22.42001
G1 X80.105 Y69.613 E22.42406
G1 X83.213 Y68.952 E22.48864
G1 X83.411 Y68.931 E22.49268
G1 X86.589 Y68.931 E22.55726
G1 X86.787 Y68.952 E22.56130
G1 X89.895 Y69.613 E22.62589 F1800.000
G1 X90.084 Y69.674 E22.62993
